archdroid-icon-theme/Archdroid-Red/mimetypes/scalable/application-apk.svg

<svg xmlns="http://www.w3.org/2000/svg" fill="#F44336" viewBox="0 0 48 48"><path d="m41.09 10.45l-2.77-3.36c-.56-.66-1.39-1.09-2.32-1.09h-24c-.93 0-1.76.43-2.31 1.09l-2.77 3.36c-.58.7-.92 1.58-.92 2.55v25c0 2.21 1.79 4 4 4h28c2.21 0 4-1.79 4-4v-25c0-.97-.34-1.85-.91-2.55"/><g fill="#fff"><path d="m10.25 10l1.63-2h24l1.87 2h-27.5"/><text x="23.967" y="33.688" font-family="Ubuntu" letter-spacing="0" word-spacing="0" text-anchor="middle" text-align="center" font-weight="500" writing-mode="lr" line-height="120%" font-size="12.5"><tspan x="23.967" y="33.688"/></text><path d="m12 36c0 1.1.9 2 2 2h2v7c0 1.66 1.34 3 3 3 1.66 0 3-1.34 3-3v-7h4v7c0 1.66 1.34 3 3 3 1.66 0 3-1.34 3-3v-7h2c1.1 0 2-.9 2-2v-20h-24v20m-5-20c-1.66 0-3 1.34-3 3v14c0 1.66 1.34 3 3 3 1.66 0 3-1.34 3-3v-14c0-1.66-1.34-3-3-3m34 0c-1.66 0-3 1.34-3 3v14c0 1.66 1.34 3 3 3 1.66 0 3-1.34 3-3v-14c0-1.66-1.34-3-3-3zm-9.94-11.68l2.61-2.61c.39-.39.39-1.02 0-1.41-.39-.39-1.02-.39-1.41 0l-2.96 2.95c-1.6-.79-3.39-1.25-5.3-1.25-1.92 0-3.72.46-5.33 1.26l-2.97-2.97c-.39-.39-1.02-.39-1.41 0-.39.39-.39 1.02 0 1.41l2.62 2.62c-2.97 2.19-4.91 5.71-4.91 9.68h24c0-3.98-1.95-7.5-4.94-9.68m-11.06 5.68h-2v-2h2v2zm10 0h-2v-2h2v2" transform="matrix(.41664 0 0 .41664 14 19)"/></g></svg>

<?xml version="1.0" encoding="UTF-8" standalone="no"?>
<svg
   xmlns:dc="http://purl.org/dc/elements/1.1/"
   xmlns:cc="http://creativecommons.org/ns#"
   xmlns:rdf="http://www.w3.org/1999/02/22-rdf-syntax-ns#"
   xmlns:svg="http://www.w3.org/2000/svg"
   xmlns="http://www.w3.org/2000/svg"
   xmlns:sodipodi="http://sodipodi.sourceforge.net/DTD/sodipodi-0.dtd"
   xmlns:inkscape="http://www.inkscape.org/namespaces/inkscape"
   fill="#F44336"
   width="48"
   height="48"
   viewBox="0 0 48 48"
   id="svg2"
   version="1.1"
   inkscape:version="0.91 r13725"
   sodipodi:docname="application-apk.svg">
  <metadata
     id="metadata10">
    <rdf:RDF>
      <cc:Work
         rdf:about="">
        <dc:format>image/svg+xml</dc:format>
        <dc:type
           rdf:resource="http://purl.org/dc/dcmitype/StillImage" />
        <dc:title></dc:title>
      </cc:Work>
    </rdf:RDF>
  </metadata>
  <defs
     id="defs8" />
  <sodipodi:namedview
     pagecolor="#ffffff"
     bordercolor="#666666"
     borderopacity="1"
     objecttolerance="10"
     gridtolerance="10"
     guidetolerance="10"
     inkscape:pageopacity="0"
     inkscape:pageshadow="2"
     inkscape:window-width="1366"
     inkscape:window-height="713"
     id="namedview6"
     showgrid="false"
     inkscape:zoom="4.9166667"
     inkscape:cx="62.082014"
     inkscape:cy="47.862252"
     inkscape:window-x="0"
     inkscape:window-y="30"
     inkscape:window-maximized="1"
     inkscape:current-layer="svg2"
     inkscape:snap-bbox="true"
     inkscape:bbox-paths="true"
     inkscape:bbox-nodes="true" />
  <path
     d="M 41.09,10.45 38.32,7.09 C 37.76,6.43 36.93,6 36,6 L 12,6 C 11.07,6 10.24,6.43 9.69,7.09 L 6.92,10.45 C 6.34,11.15 6,12.03 6,13 l 0,25 c 0,2.21 1.79,4 4,4 l 28,0 c 2.21,0 4,-1.79 4,-4 l 0,-25 c 0,-0.97 -0.34,-1.85 -0.91,-2.55 z"
     id="path4188" />
  <path
     d="m 10.25,10 1.63,-2 24,0 1.87,2 -27.5,0 z"
     id="path4"
     style="fill:#ffffff;fill-opacity:1" />
  <text
     xml:space="preserve"
     style="font-style:normal;font-variant:normal;font-weight:500;font-stretch:normal;font-size:12.5px;line-height:120%;font-family:Ubuntu;-inkscape-font-specification:'Ubuntu, Medium';text-align:center;letter-spacing:0px;word-spacing:0px;writing-mode:lr;text-anchor:middle;opacity:1;fill:#ffffff;fill-opacity:1;stroke:none;stroke-width:1px;stroke-linecap:butt;stroke-linejoin:miter;stroke-opacity:1;"
     x="23.966894"
     y="33.6875"
     id="text4138"
     sodipodi:linespacing="120%"><tspan
       sodipodi:role="line"
       id="tspan4140"
       x="23.966894"
       y="33.6875" /></text>
  <g
     style="fill:#ffffff;fill-opacity:1"
     id="g3346"
     transform="matrix(0.41664497,0,0,0.41664497,14.000521,19.001041)">
    <path
       id="path3338"
       d="m 12,36 c 0,1.1 0.9,2 2,2 l 2,0 0,7 c 0,1.66 1.34,3 3,3 1.66,0 3,-1.34 3,-3 l 0,-7 4,0 0,7 c 0,1.66 1.34,3 3,3 1.66,0 3,-1.34 3,-3 l 0,-7 2,0 c 1.1,0 2,-0.9 2,-2 l 0,-20 -24,0 0,20 z M 7,16 c -1.66,0 -3,1.34 -3,3 l 0,14 c 0,1.66 1.34,3 3,3 1.66,0 3,-1.34 3,-3 L 10,19 C 10,17.34 8.66,16 7,16 Z m 34,0 c -1.66,0 -3,1.34 -3,3 l 0,14 c 0,1.66 1.34,3 3,3 1.66,0 3,-1.34 3,-3 l 0,-14 c 0,-1.66 -1.34,-3 -3,-3 z M 31.06,4.32 33.67,1.71 c 0.39,-0.39 0.39,-1.02 0,-1.41 -0.39,-0.39 -1.02,-0.39 -1.41,0 L 29.3,3.25 C 27.7,2.46 25.91,2 24,2 22.08,2 20.28,2.46 18.67,3.26 L 15.7,0.29 c -0.39,-0.39 -1.02,-0.39 -1.41,0 -0.39,0.39 -0.39,1.02 0,1.41 l 2.62,2.62 C 13.94,6.51 12,10.03 12,14 l 24,0 C 36,10.02 34.05,6.5 31.06,4.32 Z M 20,10 l -2,0 0,-2 2,0 0,2 z m 10,0 -2,0 0,-2 2,0 0,2 z"
       inkscape:connector-curvature="0"
       style="fill:#ffffff;fill-opacity:1" />
  </g>
</svg>
